dionn/decida/letras/E.svg

<?xml version="1.0"?>
<!DOCTYPE svg PUBLIC "-//W3C//DTD SVG 1.1//EN" "http://www.w3.org/Graphics/SVG/1.1/DTD/svg11.dtd" >
<svg xmlns="http://www.w3.org/2000/svg" xmlns:xlink="http://www.w3.org/1999/xlink" version="1.1" viewBox="0 0 521 800">
<path d="M386,301v-113h-194v205h209v95h-209v218h201v-130h103v224h-474v-94h58v-518h-58v-94h468v207z"/>
</svg>

<?xml version="1.0"?>
<!DOCTYPE svg PUBLIC "-//W3C//DTD SVG 1.1//EN" "http://www.w3.org/Graphics/SVG/1.1/DTD/svg11.dtd" >
<svg xmlns="http://www.w3.org/2000/svg" xmlns:xlink="http://www.w3.org/1999/xlink" version="1.1" viewBox="0 -200 521 1000">
<path d="M 386,301 V 188 H 192 v 205 h 209 v 95 H 192 V 706 H 393 V 576 H 496 V 800 H 22 V 706 H 80 V 188 H 22 V 94 h 468 v 207 z"/>
</svg>
